public/wp-content/themes/moustache/dist/icons/alert.svg

<?xml version="1.0" encoding="UTF-8"?>
<svg width="20px" height="20px" viewBox="0 0 20 20" version="1.1" xmlns="http://www.w3.org/2000/svg" xmlns:xlink="http://www.w3.org/1999/xlink">
    <!-- Generator: Sketch 43.1 (39012) - http://www.bohemiancoding.com/sketch -->
    <title>Alert stroke</title>
    <desc>Created with Sketch.</desc>
    <defs></defs>
    <g id="Page-1" stroke="none" stroke-width="1" fill="none" fill-rule="evenodd">
        <g id="Alert-stroke" fill="#D0011B">
            <path d="M8.99999934,12.9999991 L10.9999992,12.9999991 L10.9999992,14.999999 L8.99999934,14.999999 L8.99999934,12.9999991 L8.99999934,12.9999991 Z M8.99999934,4.99999958 L10.9999992,4.99999958 L10.9999992,10.9999992 L8.99999934,10.9999992 L8.99999934,4.99999958 L8.99999934,4.99999958 Z M9.98999898,-1.19999982e-07 C4.46999987,-1.19999982e-07 -1.20000095e-07,4.47999962 -1.20000095e-07,9.99999928 C-1.20000095e-07,15.5199993 4.46999987,19.9999987 9.98999898,19.9999987 C15.5199993,19.9999987 19.9999987,15.5199993 19.9999987,9.99999928 C19.9999987,4.47999915 15.5199993,-1.19999982e-07 9.98999898,-1.19999982e-07 L9.98999898,-1.19999982e-07 Z M9.99999928,17.9999988 C5.57999947,17.9999988 1.99999976,14.419999 1.99999976,9.99999928 C1.99999976,5.57999947 5.57999947,1.99999976 9.99999928,1.99999976 C14.419999,1.99999976 17.9999988,5.57999947 17.9999988,9.99999928 C17.9999988,14.419999 14.419999,17.9999988 9.99999928,17.9999988 L9.99999928,17.9999988 Z" id="Fill-2"></path>
        </g>
    </g>
</svg>

<svg xmlns="http://www.w3.org/2000/svg" width="20" height="20" viewBox="0 0 20 20"><path fill="#D0011B" fill-rule="evenodd" d="M9 13h2v2H9zm0-8h2v6H9zm.99-5C4.47 0 0 4.48 0 10s4.47 10 9.99 10C15.52 20 20 15.52 20 10S15.52 0 9.99 0M10 18c-4.42 0-8-3.58-8-8s3.58-8 8-8 8 3.58 8 8-3.58 8-8 8"/></svg>
